svg/u1f95b.svg

<svg viewBox="0 0 128 128" xmlns="http://www.w3.org/2000/svg">
  <path d="M72.9,72.09c0.37,0.37,21.81-17.86,21.81-17.86l2.22-30.53l-18.51,7.97l-31.24-1.23 l-15.68-7.11l2.45,29.96C33.94,53.29,72.54,71.73,72.9,72.09z" opacity="0.5" fill="#FFFFFF"/>
  <path d="M62.69,5.93L46.82,7.46l-11.97,4.32l-6.68,6.96l7.24,84.08l-0.14,10.58 c0,0,8.49,11,28.54,11s29.79-10.02,29.79-10.02l-0.14-10.86L100,19.57l-4.73-6.82L77.31,7.04L62.69,5.93z" opacity="0.7" fill="#E0E0E0"/>
  <path d="M33.88,53.25c0,2.73,3.48,50.39,5.01,52.9c1.53,2.51,9.54,10.35,25.13,10.07s25.12-7.15,25.95-9.52 c0.84-2.37,4.73-52.48,4.73-52.48s-0.42-5.43-11.69-9.19s-25.34-2.97-32.43-1.53C41.67,45.32,33.88,50.19,33.88,53.25z" fill="#C0C0C0"/>
  <path d="M38.95,62.63l-3.04-5.98c0,0-0.06-1.77,0.18-2.83c0.24-1.06,2.05-6.04,13.87-8.4 c9.38-1.88,21.29-1.71,29.94,0.65c5.86,1.6,11.6,4.71,12.39,7.8c0.9,3.51-0.65,5.01-0.65,5.01l-5.87,9.38l-42.91-0.57L38.95,62.63z" fill="#FCF9E9"/>
  <path d="M40.75,104.8c0.38,1.29,6.44,8.81,22.92,8.81s23.82-6.12,23.98-7.51s4.81-49.03,4.81-49.03 s-6.77,8.81-28.31,8.4s-28.23-8.86-28.23-8.86S40.34,103.42,40.75,104.8z" fill="#F0E7BA"/>
  <path d="M42.13,38.15c-2.36,0.15-3.59,1.96-3.1,5.71c0.33,2.52,0.98,5.22,4.32,4.89 c3.38-0.33,3.48-3.86,3.1-5.87C45.89,39.87,44.75,37.99,42.13,38.15z" fill="#FFFFFF"/>
  <path d="M43.28,50.23c-2.28,0.18-3.02,1.55-2.69,5.63c0.43,5.39,3.18,39.24,3.43,42.18 c0.24,2.94,1.55,4,3.34,4c1.79,0,3.26-1.79,3.18-3.83c-0.08-2.04-3.18-40.55-3.43-42.75C46.87,53.25,46.46,49.98,43.28,50.23z" fill="#FFFFFF"/>
  <path d="M38.46,109c-0.68,1.77,1.68,5.39,6.37,7.8c5.23,2.69,11.08,2.28,11.18,0.08 c0.1-2.32-3.51-1.7-8.97-4.32C42.52,110.39,39.52,106.22,38.46,109z" fill="#FFFFFF"/>
  <path d="M66.18,119.49c-0.21,1.74,8.75,1.14,15.61-1.22c7.8-2.69,10.09-6.5,9.19-7.81 c-0.9-1.31-2.71,2.08-10.42,4.59C69.88,118.5,66.49,116.85,66.18,119.49z" fill="#D5D5D5"/>
  <path d="M65.13,34.26c-0.24,0-0.48,0-0.71,0c-22.48-0.14-30.9-6.03-33.92-9.68 c-1.96-2.38-2.6-4.97-2.13-7.49v-0.08c2.26-6.75,15-12.75,35.7-12.83c23.33-0.09,35.29,8.14,35.87,13.75 c0.18,1.8-0.15,4.95-2.83,7.77C92.23,30.81,80.68,34.26,65.13,34.26z M33.13,17.91c-0.31,1.65-0.39,3,1.02,4.7 c2.16,2.61,8.2,7.98,30.25,8.12c0.25,0,0.49,0,0.74,0c19.76,0,26.07-4.35,28.71-7.26c1.48-1.63,2.06-3.07,1.89-4.79 C95.35,14.99,85.6,7.93,64.32,8.05c-22.66,0.12-30.35,5.86-31.08,9.74L33.13,17.91z" fill="#C8C8C8"/>
  <path d="M35.86,13.87c-0.45-0.48-2.07-0.17-3.39,1.36c-1.17,1.36-2.73,4.16-0.43,7.33 c2.32,3.19,9.55,9.12,33.21,9.43c21.38,0.28,31.61-7.02,31.91-11.95s-2.77-4.81-2.77-4.13s0.64,2.05,0.43,3.7 C94.57,21.51,89.83,29.64,65,29.7c-23.78,0.06-31.56-7.64-31.48-10.1C33.64,15.78,36.85,14.92,35.86,13.87z" fill="#FFFFFF"/>
</svg>

<svg viewBox="0 0 128 128" xmlns="http://www.w3.org/2000/svg">
  <defs/>
  <path d="M72.9,72.09 C73.27,72.46 94.71,54.23 94.71,54.23 L96.93,23.7 L78.42,31.67 L47.18,30.44 L31.5,23.33 L33.95,53.29 C33.94,53.29 72.54,71.73 72.9,72.09 Z" fill="#FFFFFF" opacity="0.5"/>
  <path d="M62.69,5.93 L46.82,7.46 L34.85,11.78 L28.17,18.74 L35.41,102.82 L35.27,113.4 C35.27,113.4 43.76,124.4 63.81,124.4 C83.86,124.4 93.6,114.38 93.6,114.38 L93.46,103.52 L100,19.57 L95.27,12.75 L77.31,7.04 L62.69,5.93 Z" fill="#E0E0E0" opacity="0.7"/>
  <path d="M33.88,53.25 C33.88,55.98 37.36,103.64 38.89,106.15 C40.42,108.66 48.43,116.5 64.02,116.22 C79.61,115.94 89.14,109.07 89.97,106.7 C90.81,104.33 94.7,54.22 94.7,54.22 C94.7,54.22 94.28,48.79 83.01,45.03 C71.74,41.27 57.67,42.06 50.58,43.5 C41.67,45.32 33.88,50.19 33.88,53.25 Z" fill="#C0C0C0"/>
  <path d="M38.95,62.63 L35.91,56.65 C35.91,56.65 35.85,54.88 36.09,53.82 C36.33,52.76 38.14,47.78 49.96,45.42 C59.34,43.54 71.25,43.71 79.9,46.07 C85.76,47.67 91.5,50.78 92.29,53.87 C93.19,57.38 91.64,58.88 91.64,58.88 L85.77,68.26 L42.86,67.69 L38.95,62.63 Z" fill="#FCF9E9"/>
  <path d="M40.75,104.8 C41.13,106.09 47.19,113.61 63.67,113.61 C80.15,113.61 87.49,107.49 87.65,106.1 C87.81,104.71 92.46,57.07 92.46,57.07 C92.46,57.07 85.69,65.88 64.15,65.47 C42.61,65.06 35.92,56.61 35.92,56.61 C35.92,56.61 40.34,103.42 40.75,104.8 Z" fill="#F0E7BA"/>
  <path d="M42.13,38.15 C39.77,38.3 38.54,40.11 39.03,43.86 C39.36,46.38 40.01,49.08 43.35,48.75 C46.73,48.42 46.83,44.89 46.45,42.88 C45.89,39.87 44.75,37.99 42.13,38.15 Z" fill="#FFFFFF"/>
  <path d="M43.28,50.23 C41,50.41 40.26,51.78 40.59,55.86 C41.02,61.25 43.77,95.1 44.02,98.04 C44.26,100.98 45.57,102.04 47.36,102.04 C49.15,102.04 50.62,100.25 50.54,98.21 C50.46,96.17 47.36,57.66 47.11,55.46 C46.87,53.25 46.46,49.98 43.28,50.23 Z" fill="#FFFFFF"/>
  <path d="M38.46,109 C37.78,110.77 40.14,114.39 44.83,116.8 C50.06,119.49 55.91,119.08 56.01,116.88 C56.11,114.56 52.5,115.18 47.04,112.56 C42.52,110.39 39.52,106.22 38.46,109 Z" fill="#FFFFFF"/>
  <path d="M66.18,119.49 C65.97,121.23 74.93,120.63 81.79,118.27 C89.59,115.58 91.88,111.77 90.98,110.46 C90.08,109.15 88.27,112.54 80.56,115.05 C69.88,118.5 66.49,116.85 66.18,119.49 Z" fill="#D5D5D5"/>
  <path d="M65.13,34.26 C64.89,34.26 64.65,34.26 64.42,34.26 C41.94,34.12 33.52,28.23 30.5,24.58 C28.54,22.2 27.9,19.61 28.37,17.09 L28.37,17.01 C30.63,10.26 43.37,4.26 64.07,4.18 C87.4,4.09 99.36,12.32 99.94,17.93 C100.12,19.73 99.79,22.88 97.11,25.7 C92.23,30.81 80.68,34.26 65.13,34.26 Z M33.13,17.91 C32.82,19.56 32.74,20.91 34.15,22.61 C36.31,25.22 42.35,30.59 64.4,30.73 C64.65,30.73 64.89,30.73 65.14,30.73 C84.9,30.73 91.21,26.38 93.85,23.47 C95.33,21.84 95.91,20.4 95.74,18.68 C95.35,14.99 85.6,7.93 64.32,8.05 C41.66,8.17 33.97,13.91 33.24,17.79 L33.13,17.91 Z" fill="#C8C8C8"/>
  <path d="M35.86,13.87 C35.41,13.39 33.79,13.7 32.47,15.23 C31.3,16.59 29.74,19.39 32.04,22.56 C34.36,25.75 41.59,31.68 65.25,31.99 C86.63,32.27 96.86,24.97 97.16,20.04 C97.46,15.11 94.39,15.23 94.39,15.91 C94.39,16.59 95.03,17.96 94.82,19.61 C94.57,21.51 89.83,29.64 65,29.7 C41.22,29.76 33.44,22.06 33.52,19.6 C33.64,15.78 36.85,14.92 35.86,13.87 Z" fill="#FFFFFF"/>
</svg>
